X: 1194
T: Miss Margaret Gordon (A83)
N: page A83
N: heptatonic
C:
R:Strathspey
K:Gm
M:4/4
L:1/16
|:d2|"Gm"BG3 "F"G3A F3A cA3|"Gm"BG3 G3A B3c dg3|"Gm"BG3 G3A "F"F3A cd3|\
"Eb"BG3 "D"A3^F "Gm"G6:| d2|
"Gm"gd3 d3f "F"AF3 Ad3| "Gm"gd3 d3e "F"f3g a3g|\
"Bb"fd3 d3f "F"F3A cd3|"Eb"BF3 "D"A3^F "Gm"G6^f2||
"Gm"gd3 d3f "A"AF3 cA3|"Gm"gd3 d3e "Dm"f3a ga3|\
"Gm"f3g dg3 "F"cf3 Ac3| "D"d3B dcBA "Gm"G6|
